X: 1
T:Two Forty -- Reel
M:C|
L:1/8
R:reel
B:Ryan's Mammoth Collection
N:148
Z:Contributed by Ray Davies,  ray:davies99.freeserve.co.uk
K:G
u((3DEF)|G2 (BG) cGBG   | cGBG ADEF      | G2 (BG) cGBG   | AdcA G2 ::
u((3def)|g2((3agf) gdBd | g2((3agf) gaba | g2((3agf) gdBd | egfa g2 :|
